X: 30943
T: Over To Uist
R: jig
M: 6/8
K: Adorian
|:B2 A AAA|BGG g2d|B2 A AAA|g2e g2d|
B2 A AAA|BGG g2d|efg fed|BGG g2d:|
|:e2a a2e|g2e fed|e2a a2e|g2e g2d|
e2a a2e|g2e fed|efg fed|BGG g2d:|
|:B2A AAA|GAA AAA|B2A AAA|g2e g2d|
B2A AAA|GAA AAA|efg fed|BGG g2d:|
|:e2f g2a|g2e fed|e2f g2a|gfe g2d|
[1 e2f g2a|g2e fed|efg fed|BGG g2d:|
[2 efg fga|gfe fed|edB dBA|BGG g2d||

